images/icons/twitter.svg

<svg width="27" height="27" viewBox="0 0 27 27" fill="none" xmlns="http://www.w3.org/2000/svg">
<path d="M24.1701 6.86154C23.4246 7.19188 22.6247 7.41591 21.7842 7.51593C22.6424 7.00204 23.2993 6.18693 23.6106 5.21864C22.8056 5.69454 21.9171 6.04011 20.9703 6.22744C20.2122 5.41865 19.1338 4.91488 17.9376 4.91488C15.6429 4.91488 13.7823 6.77549 13.7823 9.06897C13.7823 9.39425 13.819 9.71195 13.8899 10.0157C10.437 9.84232 7.37524 8.18803 5.32605 5.67429C4.96784 6.28691 4.76406 7.00075 4.76406 7.76274C4.76406 9.20441 5.49819 10.4765 6.61203 11.2207C5.93106 11.1979 5.2906 11.0106 4.72991 10.6992V10.7511C4.72991 12.7636 6.16271 14.4432 8.06253 14.8255C7.71445 14.9191 7.34741 14.971 6.96769 14.971C6.69937 14.971 6.43989 14.9444 6.18548 14.8938C6.71453 16.5456 8.24861 17.7467 10.0662 17.7797C8.64478 18.8935 6.85251 19.5555 4.90585 19.5555C4.57045 19.5555 4.24007 19.5352 3.91479 19.4985C5.75389 20.6794 7.93726 21.368 10.2839 21.368C17.9276 21.368 22.1057 15.0368 22.1057 9.54617L22.0918 9.00824C22.9082 8.42597 23.6144 7.69439 24.1701 6.86154Z" fill="#010002"/>
<mask id="mask0_2_31" style="mask-type:luminance" maskUnits="userSpaceOnUse" x="3" y="4" width="22" height="18">
<path d="M24.1701 6.86154C23.4246 7.19188 22.6247 7.41591 21.7842 7.51593C22.6424 7.00204 23.2993 6.18693 23.6106 5.21864C22.8056 5.69454 21.9171 6.04011 20.9703 6.22744C20.2122 5.41865 19.1338 4.91488 17.9376 4.91488C15.6429 4.91488 13.7823 6.77549 13.7823 9.06897C13.7823 9.39425 13.819 9.71195 13.8899 10.0157C10.437 9.84232 7.37524 8.18803 5.32605 5.67429C4.96784 6.28691 4.76406 7.00075 4.76406 7.76274C4.76406 9.20441 5.49819 10.4765 6.61203 11.2207C5.93106 11.1979 5.2906 11.0106 4.72991 10.6992V10.7511C4.72991 12.7636 6.16271 14.4432 8.06253 14.8255C7.71445 14.9191 7.34741 14.971 6.96769 14.971C6.69937 14.971 6.43989 14.9444 6.18548 14.8938C6.71453 16.5456 8.24861 17.7467 10.0662 17.7797C8.64478 18.8935 6.85251 19.5555 4.90585 19.5555C4.57045 19.5555 4.24007 19.5352 3.91479 19.4985C5.75389 20.6794 7.93726 21.368 10.2839 21.368C17.9276 21.368 22.1057 15.0368 22.1057 9.54617L22.0918 9.00824C22.9082 8.42597 23.6144 7.69439 24.1701 6.86154Z" fill="white"/>
</mask>
<g mask="url(#mask0_2_31)">
<rect x="0.340332" y="0.148926" width="26.2128" height="26.2128" fill="white"/>
</g>
</svg>

<svg xmlns="http://www.w3.org/2000/svg" width="27" height="27" fill="none"><path fill="#010002" d="M24.17 6.862a8.298 8.298 0 0 1-2.386.654 4.172 4.172 0 0 0 1.827-2.297 8.377 8.377 0 0 1-2.64 1.008 4.155 4.155 0 0 0-7.08 3.788 11.797 11.797 0 0 1-8.565-4.34 4.124 4.124 0 0 0-.562 2.088c0 1.441.734 2.713 1.848 3.458a4.156 4.156 0 0 1-1.882-.522v.052a4.16 4.16 0 0 0 3.333 4.075 4.211 4.211 0 0 1-1.095.145c-.269 0-.528-.027-.783-.077a4.157 4.157 0 0 0 3.881 2.886 8.337 8.337 0 0 1-5.16 1.775c-.336 0-.666-.02-.991-.056a11.746 11.746 0 0 0 6.369 1.869c7.644 0 11.822-6.331 11.822-11.822l-.014-.538a8.298 8.298 0 0 0 2.078-2.146Z"/><mask id="a" width="22" height="18" x="3" y="4" maskUnits="userSpaceOnUse" style="mask-type:luminance"><path fill="#fff" d="M24.17 6.862a8.298 8.298 0 0 1-2.386.654 4.172 4.172 0 0 0 1.827-2.297 8.377 8.377 0 0 1-2.64 1.008 4.155 4.155 0 0 0-7.08 3.788 11.797 11.797 0 0 1-8.565-4.34 4.124 4.124 0 0 0-.562 2.088c0 1.441.734 2.713 1.848 3.458a4.156 4.156 0 0 1-1.882-.522v.052a4.16 4.16 0 0 0 3.333 4.075 4.211 4.211 0 0 1-1.095.145c-.269 0-.528-.027-.783-.077a4.157 4.157 0 0 0 3.881 2.886 8.337 8.337 0 0 1-5.16 1.775c-.336 0-.666-.02-.991-.056a11.746 11.746 0 0 0 6.369 1.869c7.644 0 11.822-6.331 11.822-11.822l-.014-.538a8.298 8.298 0 0 0 2.078-2.146Z"/></mask><g mask="url(#a)"><path fill="#fff" d="M.34.149h26.213v26.213H.34z"/></g></svg>
